public/Vector.svg

<svg width="107" height="83" viewBox="0 0 107 83" fill="none" xmlns="http://www.w3.org/2000/svg">
<path d="M9.80948 75.2051C3.67091 68.6884 0.375 61.3752 0.375 49.5199C0.375 28.669 15.0117 9.97656 36.3073 0.738281L41.6262 8.94654C21.7537 19.6989 17.8697 33.6451 16.3174 42.4396C19.5169 40.785 23.7053 40.2028 27.8114 40.5836C38.5624 41.5804 47.0359 50.4059 47.0359 61.3752C47.0359 72.8926 37.699 82.2293 26.1815 82.2293C19.7878 82.2293 13.6738 79.3068 9.80948 75.2051ZM69.3928 75.2051C63.2545 68.6884 59.9583 61.3752 59.9583 49.5199C59.9583 28.669 74.595 9.97656 95.8906 0.738281L101.21 8.94654C81.3368 19.6989 77.4532 33.6451 75.9004 42.4396C79.1001 40.785 83.2888 40.2028 87.3947 40.5836C98.1459 41.5804 106.619 50.4059 106.619 61.3752C106.619 72.8926 97.2825 82.2293 85.7651 82.2293C79.3712 82.2293 73.2573 79.3068 69.3928 75.2051Z" fill="#DDDDDD"/>
</svg>

<svg xmlns="http://www.w3.org/2000/svg" width="107" height="83" fill="none"><path fill="#DDD" d="M9.81 75.205C3.67 68.688.374 61.375.374 49.52.375 28.669 15.012 9.977 36.307.738l5.32 8.209C21.753 19.699 17.87 33.645 16.316 42.44c3.2-1.655 7.388-2.237 11.494-1.856 10.751.996 19.225 9.822 19.225 20.791 0 11.518-9.337 20.854-20.855 20.854-6.393 0-12.507-2.922-16.372-7.024Zm59.583 0c-6.139-6.517-9.435-13.83-9.435-25.685 0-20.851 14.637-39.543 35.933-48.782l5.319 8.209C81.337 19.699 77.453 33.645 75.9 42.44c3.2-1.655 7.389-2.237 11.495-1.856 10.75.996 19.224 9.822 19.224 20.791 0 11.518-9.337 20.854-20.854 20.854-6.394 0-12.508-2.922-16.372-7.024Z"/></svg>
